X:1
T:[ID 1-42]
T:[ID 1-42]
T:Bezeichnung standardisiert: Menuett Men. \"Ahnlich in anderer Quelle: Menuet - opac.rism.info/search?id=450059948 (Anm. S. Wascher);
T:Urheber unbekannt Datum in der hier transkribierten schriftlichen Quelle: vermutlich vor 1767
C:Urheber unbekannt
C:Datum in der hier transkribierten schriftlichen Quelle: vermutlich vor 1767
L:1/8
M:none
K:D
V:1 treble 
V:1
 d2 fedc | d2 cBAG | FGAEFG | F2 EF D2 | ag f2 b2 | a2 ga f2 | ef g2 fg | edcB A2 | d2 fedc | %9
 d2 cBAG | FGAEFG | F2 EF D2 | ag f2 b2 | a2 ga f2 | ef g2 fg | e6 :: AdAdAd | BdBdBd | AdAdAd | %19
 BAGF G2 | BeBeBe | cecece | BeBeBe | cBA^G A2 | gfgeag | fedc d2 | egfedc | d6 :| %28

